packages/icons/src/SVG/copy-solid.svg

<!-- Generated by IcoMoon.io -->
<svg version="1.1" xmlns="http://www.w3.org/2000/svg" width="12" height="12" viewBox="0 0 12 12">
<title>copy-solid</title>
<path d="M8.707 0h-4.707v9h7v-6.707l-2.293-2.293zM7 1h1v2h2v1h-3v-3z"></path>
<path d="M8 10h-5v-7h-2v9h7v-2z"></path>
</svg>

<svg width="12" height="12" viewBox="0 0 12 12" >
<path fill-rule="evenodd" clip-rule="evenodd" d="M8.70711 0H4V9H11V2.29289L8.70711 0ZM7 1H8V3H10V4H7V1Z" />
<path d="M8 10H3V3H1V12H8V10Z" />
</svg>
